X:234
T:Tam Lin
T:Howling Wind
R:reel
N:First played in Dm a few times round, then in Am a few times round
Z:id:hn-reel-234
M:C|
K:Dm
A,2DA, FA,DA,|B,2DB, FB,DB,|C2EC GCEC|FEDC A,DDC|
A,2DA, FA,DA,|B,2DB, FB,DB,|C2EC GCEC|FEDC A,DD2:|
|:dA~A2 FADA|dA~A2 FADA|cG~G2 EG~G2|cG~G2 cdec|
dA~A2 FADA|dA~A2 FADA,|~B,3A, B,CDE|FDEC A,DD2:|
K:Am
E2AE cEAE|F2AF cFAF|G2BG dGBG|cBAG EAAG|
E2AE cEAE|F2AF cFAF|G2BG dGBG|cBAG EAA2:|
|:ae~e2 ceAe|ae~e2 ceAe|gd~d2 Bd~d2|gd~d2 gabg|
ae~e2 ceAe|ae~e2 ceAE|~F3E FGAB|cABG EAA2:|
